X:146
T:De Montford
Z:Jack Campin, http://www.campin.me.uk/
F:Jack Campin's Nine-Note Tunebook
% last edit 06-10-2014
C:Jo Freya (slightly folk-processed)
M:2/4
L:1/8
Q:1/4=132
K:DMin
D A2 D |B2 DA-|   AF  GA |GF EF |
D A2 D |B2 DA-|   AF  GA |G2 z2:|
E>F GE-|EG FE |   F>E DF-|FD EF |
E>F GE-|EG FE |[1 F2  G2 |A2 z2:|\
               [2 F2  E2 |D4   |]


